X:1
T:The New Song (Pierson)
T:Philip Paul Bliss
T:The New Song (Pierson)
T:Public Domain
T:Public Domain
C:Philip Paul Bliss
Z:Public Domain
%%score ( 1 2 ) ( 3 4 )
L:1/8
M:3/4
K:Bb
V:1 treble 
V:2 treble 
V:3 bass 
V:4 bass 
V:1
 ([B,D]>[CE]) | [DF]2 [DF]2 ([EG]>A) | [DB]2 [DB]2 ([CA]>[DB]) | [Ec]2 [EB]2 [EG]2 | [DF]4 F>F | %5
w: 1.~With *|harps and with *|vi- als, there *|stand a great|throng In the|
w: 2.~All *|these once were *|sin- ners, de- *|filed in His|sight, Now ar-|
w: 3.~He *|mak- eth the *|re- bel a *|priest and a|king, He hath|
w: 4.~How *|help- less and *|hope- less we *|sin- ners had|been, If He|
w: 5.~A- *|loud in His *|prais- es our *|voic- es shall|ring, So that|
 F2 [=EG]2 [_EA]2 | [DB]2 [Dc]2 [Dd]2 | [=Ed]2 [Ec]2 [EB]2 | [Fc]4 ||"^Refrain" [Fd]>[Ec] | %10
w: of Je- sus,|sing this new|song: * *|||
w: pure gar- ments|praise they u-|nite: * *|||
w: and taught us|new song to|sing: * *|||
w: had loved us|cleansed from our|sin: * *|||
w: be- liev- ing,|new song shall|sing: * *|||
 [DB]2 [DB]2 ([DB]>[FA]) | [EG]2 [EG]2 [EG]2 | [Ec]2 [=Ec]2 [Ed]2 | [Fc]4 [Fc]>[Fc] | %14
w: ||||
w: ||||
w: ||||
w: ||||
w: ||||
 [Fd]2 [Fc]2 [Fd]2 | [Ee]2 [Fd]2 [Gc]2 | [FB]2 [FA]2 [Ec]2 | [DB]4 |] %18
w: ||||
w: ||||
w: ||||
w: ||||
w: ||||
V:2
 x2 | x6 | x6 | x6 | x4 F>F | F2 x4 | x6 | x6 | x4 || x2 | x6 | x6 | x6 | x6 | x6 | x6 | x6 | x4 |] %18
w: ||||pre- sence|and|||||||||||||
w: ||||rayed in|in|||||||||||||
w: ||||bought us|this|||||||||||||
w: ||||nev- er|till|||||||||||||
w: ||||o- thers|this|||||||||||||
V:3
 [B,,B,]2 | [B,,B,]2 [B,,B,]2 [B,,B,]2 | [B,,B,]2 [B,,F,]2 [B,,F,]2 | [E,G,]2 [E,G,]2 [E,B,]2 | %4
w: ~|~ ~ ~|~ ~ ~|~ ~ ~|
 [B,,B,]4 [F,A,]>[F,A,] | [F,A,]2 [F,B,]2 [F,C]2 | [G,B,]2 [G,B,]2 [G,B,]2 | %7
w: ~ ~ ~|~ ~ ~|~ ~ ~|
 [G,B,]2 [G,B,]2 [G,B,]2 | [F,A,]4 || [F,A,]>[F,A,] | [B,,B,]2 [B,,B,]2 (B,,>D,) | %11
w: ~ ~ ~|~|Un- to|Him Who hath *|
 [E,B,]2 [E,B,]2 (E,>D,) | [C,C]2 [C,G,]2 [C,B,]2 | [F,A,]4 [F,A,]>[F,A,] | B,2 [A,C]2 [_A,B,]2 | %15
w: us and washed *|from sin, Un-|to Him be|the glor- y|
 [G,B,]2 [F,B,]2 [E,E]2 | [F,D]2 [F,C]2 [F,A,]2 | [B,,B,]4 |] %18
w: ev- er, A-|men. * *||
V:4
 x2 | x6 | x6 | x6 | x6 | x6 | x6 | x6 | x4 || x2 | x4 B,2 | x4 B,2 | x6 | x6 | B,2 x4 | x6 | x6 | %17
w: ||||||||||loved|us|||for-|||
 x4 |] %18
w: |

